X:220
T:Dunt the Grund at Leisure
R:Strathspey
B:The Athole Collection
M:C
L:1/8
K:G
D|GBG>B|c>AB>G A/A/A g>e|
d>c B<A G2G:|
e|~g>dg>a b/a/g/f/ e>f|~g>dg>b ~g>dg>b|~g>dg>a b/a/g/f/ e>f|
g>e ddg>a b/a/g/f/ e>f|~g>dg>b d>eg>a|
b/a/g/f/ g>B A/A/A g>e|d>cB>A G2G||
